X: 2793
T: Banshee, The
R: reel
M: 4/4
K: Gmajor
G2GD EDB,D|GDGB d2Bd|eged BAGA|BAGE EDDE|
G2GD EDB,D|GDGB d2Bd|eged BAGA|BAGE EDD2:|
eaag efge|dBBA B2Bd|eB(3BBB gBfB|eBBA B2Bd|
eaag efge|dBBA B2Bd|eged BAGA|BAGE EDD2:|

